X:1
T:London (Addison’s), LMD
T:London (Addison’s), LMD
T:John Sheeles, circa 1720
T:Public Domain Courtesy of the Cyber Hymnal™
C:John Sheeles, circa 1720
Z:Public Domain
Z:Courtesy of the Cyber Hymnal™
%%score ( 1 2 ) ( 3 4 )
L:1/8
Q:1/4=110
M:none
K:F
V:1 treble 
V:2 treble 
V:3 bass 
V:4 bass 
V:1
 [CF]2 | [CA]2 [FA]2 G2 [Ec]2 | BA [CG][=B,F] [CG]2 C2 | FG [FA]2 [CG]2 FE | [CF]2 ED [CE]2 G2 | %5
 [FA]2 [Fd]2 [CG]2 [Ec]2 | [DF]2 GF [CE]2 [CG]2 | [FA]2 [F=B]2 [Cc]2 [DF]2 | [CE]2 [=B,D]2 C2 C2 | %9
 [CG]2 [DG]2 [CE]2 DC | [CF]2 [EG]2 [FA]2 [FA]2 | [Gc]2 [Ec]2 BA GF | [FB]2 c2 [Bd]2 [Fc]2 | %13
 [Fd]2 cB [Ec]2 F2 | [FB]2 AG [FA]2 [CF]2 | [CG]2 [CF]2 [CE]2 F2 | %16
 [GB]2 [FA]2 !fermata![EG]2 [Fc]2 | [Fd]2 [Fc]2 E2 [CF][DG] | [CA]2 GF [A,F]2 |] %19
V:2
 x2 | x4 G2 x2 | F2 x3 C2 x | C2 x3 C2 x | x2 =B,2 x G2 x | x8 | x2 D2 x4 | x8 | x4 C2 C2 | %9
 x6 G,2 | x8 | x4 F2 C2 | x2 GA x4 | x2 G2 x F2 x | x2 E2 x4 | x6 F2 | x8 | x4 E2 x2 | x2 C2 x2 |] %19
V:3
 [F,A,]2 | [F,C]2 [F,C]2 [E,C]2 [C,C]2 | [F,C]2 G,2 [C,E,]2 [E,G,]2 | %3
 [F,A,]2 A,=B, [E,C]2 [C,G,]2 | [D,F,]2 [G,,G,]2 [C,G,]2 [E,C]2 | [F,C]2 B,A, [E,G,]2 A,G, | %6
 [D,F,]2 B,A, [C,G,]2 [E,G,]2 | [F,C]2 =B,A, [E,G,]2 [F,A,]2 | G,2 G,F, [C,E,]2 [C,E,][D,F,] | %9
 [E,G,]2 [=B,,G,]2 [C,G,]2 [_B,,E,]2 | [A,,F,]2 [C,C]2 [F,C]2 [F,C]2 | %11
 [E,C]2 [C,C]2 [F,C]2 [_E,A,]2 | [D,B,]2 [C,_E]2 [B,,D]2 [F,A,]2 | B,2 [G,D]2 [A,C]2 [D,A,]2 | %14
 [G,B,]2 [C,C]2 [F,C]2 [F,A,]2 | [E,B,]2 [F,A,]2 [C,B,]2 [D,A,]2 | %16
 [E,C]2 [F,C]2 !fermata![C,C]2 [A,,F,]2 | [B,,F,]2 [A,,F,]2 [G,,B,]2 F,2 | [C,F,]2 E,F, [F,,F,]2 |] %19
V:4
 x2 | x8 | x2 E,D, x4 | x2 D,2 x4 | x8 | x2 D,2 x C,2 x | x2 B,,2 x4 | x2 D,2 x4 | G,2 G,,2 x4 | %9
 x8 | x8 | x8 | x8 | B,2 x6 | x8 | x8 | x8 | x6 A,,B,, | x2 C,2 x2 |] %19

